frontend/src/assets/figma/vector-1786.svg

<svg preserveAspectRatio="none" width="100%" height="100%" overflow="visible" style="display: block;" viewBox="0 0 67.494 86.4215" fill="none" xmlns="http://www.w3.org/2000/svg">
<path id="Vector" d="M21.3716 0C22.7613 14.9898 32.6828 27.4984 46.2101 32.5782V0.0660666H67.3441V62.5357L67.494 62.4623V82.3924L66.1482 82.8659C65.1352 83.2219 64.104 83.5596 63.0471 83.8715C61.7854 84.2533 60.5237 84.5799 59.2657 84.8699C56.3474 85.5416 53.4218 85.9857 50.5145 86.2206C49.0699 86.338 47.6291 86.4078 46.1882 86.4188C45.8079 86.4224 45.4275 86.4224 45.0509 86.4188C44.8168 86.4188 44.5316 86.4188 44.239 86.4041C38.9217 86.2903 33.6995 85.4718 28.6857 84.0257C28.4078 83.9486 28.1298 83.8679 27.8373 83.7724C27.0327 83.5375 26.2501 83.2769 25.5004 83.0163H25.4931L25.4858 83.009C25.025 82.8438 24.5642 82.6787 24.0961 82.5062C21.6203 81.5849 19.2506 80.4508 17.5135 79.5589C16.6431 79.1111 15.9227 78.7183 15.418 78.4357C15.1657 78.2962 14.9682 78.1825 14.8292 78.1017C14.7598 78.0613 14.7085 78.032 14.672 78.01C14.6537 77.9989 14.6391 77.9916 14.6281 77.9843C14.6244 77.9843 14.6208 77.9806 14.6171 77.9769L14.1454 77.698C9.28884 74.7947 5.58062 71.6272 3.29864 69.491L1.49572 67.8063L3.50343 66.3712C5.42337 64.9985 7.40181 63.5194 9.41317 61.9227L10.0897 61.3832C11.6549 60.1279 13.1433 58.88 14.555 57.6468L15.8569 56.5126L17.1734 57.6284C20.2818 60.2674 24.012 62.7669 28.448 64.6902L28.8795 64.8737C29.3476 65.0719 29.823 65.2591 30.3131 65.4463H30.3313L30.4411 65.4903C30.953 65.6849 31.4797 65.8684 32.0282 66.0482C32.1599 66.0923 32.2696 66.1253 32.3756 66.162L32.6938 66.2611L32.7267 66.2685L32.756 66.2795L33.0778 66.3822C33.2935 66.4483 33.513 66.5144 33.7324 66.5731L34.0652 66.6649H34.0761L34.0871 66.6722C34.9246 66.9071 35.7657 67.1163 36.6104 67.2925L36.9725 67.3659H36.9762H36.9798C39.3971 67.8577 41.8656 68.1514 44.3633 68.2211C44.9777 68.2358 45.5958 68.2394 46.2175 68.2321V54.8867C20.8158 49.0251 1.60178 26.9001 0 0H21.368H21.3716Z" fill="var(--fill-0, white)"/>
</svg>

<svg xmlns="http://www.w3.org/2000/svg" fill="none" overflow="visible" preserveAspectRatio="none" style="display:block" viewBox="0 0 67.494 86.421"><path fill="var(--fill-0, white)" d="M21.372 0c1.39 14.99 11.31 27.498 24.838 32.578V.066h21.134v62.47l.15-.074v19.93l-1.346.474a64 64 0 0 1-3.1 1.005 61 61 0 0 1-12.533 2.35 59 59 0 0 1-5.464.198c-.234 0-.52 0-.812-.015a60.8 60.8 0 0 1-15.553-2.378 19 19 0 0 1-.849-.254 49 49 0 0 1-2.337-.756h-.007l-.007-.007c-.461-.165-.922-.33-1.39-.503-2.476-.921-4.845-2.055-6.582-2.947a68 68 0 0 1-2.685-1.457l-.157-.092-.044-.026q-.006 0-.01-.007l-.473-.279C9.29 74.795 5.581 71.628 3.3 69.491l-1.803-1.685 2.007-1.435a147 147 0 0 0 5.91-4.448l.677-.54a139 139 0 0 0 4.465-3.736l1.302-1.134 1.316 1.115c3.109 2.64 6.839 5.139 11.275 7.062l.431.184c.469.198.944.385 1.434.572h.018l.11.044c.512.195 1.039.378 1.587.558.132.044.242.077.348.114l.318.1.033.007.029.01.322.103q.324.1.654.191l.333.092h.011l.011.007q1.257.354 2.523.62l.362.074h.008c2.417.492 4.886.785 7.383.855q.922.022 1.855.011V54.887C20.816 49.025 1.602 26.9 0 0z"/></svg>
